X:1
T:A Shropshire Lad
T:When I was one-and-twenty
T:A Shropshire Lad
T:2. When I was one-and-twenty
T:Arthur Somervell
T:A. E. Housman
T:Creative Commons copyright waiver (CC0 1.0 Universal)
T:Creative Commons copyright waiver (CC0 1.0 Universal)
T:Creative Commons copyright waiver (CC0 1.0 Universal)
C:Arthur Somervell
Z:A. E. Housman
Z:Creative Commons copyright waiver (CC0 1.0 Universal)
%%score 1 { ( 2 4 ) | ( 3 5 ) }
L:1/8
Q:1/4=116
M:2/4
K:B
V:1 treble nm="Voice"
V:2 treble nm="Piano"
V:4 treble 
V:3 bass 
V:5 bass 
V:1
"^Allegretto scherzando" z4 | z4 | z4 | z2 z!p! F | B3/2 F/ F E | D F2 B, | C3/2 C/ E D | F3 F | %8
w: |||When|I was one- and-|twen- ty I|heard a wise man|say ‘Give|
 B3/2 F/ F3/2 E/ | D F2 B, | C C E3/2 F/ | B,2 z D |!<(! ^E3/2 E/ F!<)! A | c2 A F | %14
w: crowns and pounds and|gui- neas But|not your heart a-|way; Give|pearls a- way and|ru- bies But|
!<(! D3/2 D/ E G!<)! | B3!mf! B |"^rit."[Q:1/4=110] d3/2 A/ A G | %17
w: keep your fan- cy|free.’ But|I was one- and-|
 ^^F A !fermata!z!p![Q:1/4=100] D | C3/2 C/ E3/2 D/ | B,2 z2[Q:1/4=116] | z4 | z4 | z4 | %23
w: twen- ty, No|use to talk to|me.||||
 z2 z!p! F | B3/2 F/ F E | D F2 B, | C3/2 C/ E3/2 D/ | F3 F | B2 (3F F E | D F2 B, | C C E3/2 D/ | %31
w: When|I was one- and-|twen- ty I|heard him say a-|gain, ‘The|heart out of the|bo- som Was|nev- er given in|
 B,3"^poco meno mosso" D |!<(! ^E3/2 E/ F =A!<)! | c2 =A F | D3/2!<(! D/ E =G!<)! | %35
w: vain; ’Tis|paid with sighs a-|plen- ty, And|sold for end- less|
 B3"^rit."[Q:1/4=110] B | =d3/2 =A/ A =G | F =A[Q:1/4=100] z!mp! =D | %38
w: rue.’ And|I am two- and-|twen- ty, And|
"^molto rall."[Q:1/4=90] E3/2 E/[Q:1/4=80] =G3/2 F/ |[Q:1/4=114]!<(! F4-!<)! |!>(! F4!>)! | z4 | %42
w: oh, ’tis true, ’tis|true.|_||
 z4 | z4 |] %44
w: ||
V:2
!p! BF!<(!{/A}GF- | dB{/d}cB!<)! | (f2 g) z | z2!p! [A,F] z | [B,F] z [A,E] z | [B,D] z [F,B,F] z | %6
[K:bass] [G,B,C] z (A,2 | [E,C][D,B,] [F,D][A,E]) | [B,F] z [A,E] z | [B,D] z [=A,B,F] z | %10
 [G,B,C] z [A,^C] z | B,3 D |[K:treble]!<(! ([G,C^E]2 [F,CF]2!<)! | [B,^EG]2 [A,FA]2) | %14
 ([F,B,D]2 [E,B,E]2 | [=A,DF]2 [G,EG]2) | ([A,D^^F]2 [G,^^C^E]2 | [^^F,D]) z !fermata!z z | %18
[K:bass]!p! [G,B,C] z A,2 | !fermata!z[K:treble] .[B,DF]!<(!(GF) | BF{/A}GF- | dB{/d}cB!<)! | %22
 (f2 g) z | z2!p! [A,F]2 |[K:bass] ([B,F]2 [A,E]2 | [B,D]2 [B,F]2) | [G,B,C]2 A,2 | %27
 ([E,C][D,B,])[K:treble] (GF) | [B,FB] z[K:bass] ([F,-A,E]2 | [F,B,D]2 [=A,B,F]2 | %30
 [G,B,C]2 [^A,E]2 | [B,D]3) z |[K:treble]"_poco meno mosso." ([G,C^E]2 [F,CF]2 | %33
 [B,^EG]2 [=A,F=A]2) |[K:bass] ([F,B,D]2 [E,B,E]2 | [=A,DF]2 [=G,E=G])[K:treble] ([B,=D^G] | %36
 =A3 =G | [=A,=DF]) z [A,D] z | [B,=DE] z [B,C=G]>[^A,EF] | %39
"_a tempo""_correct 'tempo'\n\nto 'a tempo'\n" BF!<(!{/A}GF- | (dB{/d}cB) | (f2 .g)!<)! z | %42
 z2[K:bass]!p! ([E,A,]2 | .[D,B,]) z z2 |] %44
V:3
 [D,F,B,]2 [C,E,A,]2 | [B,,F,B,]2 [G,B,^E]2 | ([F,D]2 [=E,C]) z | z2 [E,F,] z | [D,F,] z [C,F,] z | %5
 [B,,F,] z D,, z | E,, z F,, z | B,,,3 C,, | D,, z C,, z | B,,, z D,, z | E,, z F,, z | D,F,B, z | %12
 C,4- | C,4 | B,,4- | B,,4 | ([A,,,A,,-]4 | [D,,A,,]) z !fermata!z z | E,, z F,,2 | B,,,2 C,2 | %20
 [D,F,B,]2 [C,E,^A,]2 | [B,,F,B,]2 [G,B,^E]2 | ([F,D]2 [=E,C]) z | z2 E,,2 | (D,,2 C,,2 | %25
 B,,,2 D,,2) | E,,2 F,,2 | [B,,,B,,]4 | D,,2 (C,,2 | B,,,2 D,,2 | E,,2 F,,2 | (B,,F,B,)) z | C,4- | %33
 C,4 | B,,4- | B,,4 | [=A,,,=A,,]4- | [A,,,A,,]2 [F,,,F,,] z | [=G,,,=G,,] z [E,,,E,,]>[F,,,F,,] | %39
 [D,F,B,]2 [C,E,A,]2 | [B,,F,B,]2 [G,B,^E]2 | ([F,D]2 .[=E,C]) z | z2 (F,,2 | .B,,,) z z2 |] %44
V:4
 x4 | F2 x2 | B3 x | x4 | x4 | x4 |[K:bass] x2 [G,E][F,D] | x4 | F,4- | !stemless!F, x3 | x4 | x4 | %12
[K:treble] x4 | x4 | x4 | x4 | x4 | x4 |[K:bass] x2 ([G,E]>[F,D]) | x[K:treble] x [A,E]2 | x4 | %21
 F2 x2 | B3 x | x4 |[K:bass] F,4- | F,4 | x2 ([G,E][F,D]) | x2[K:treble] [A,E]2 | x2[K:bass] x2 | %29
 x4 | x4 | x4 |[K:treble] x4 | x4 |[K:bass] x4 | x3[K:treble] x | [=A,=DF]2 [B,D]2 | x4 | x4 | x4 | %40
 F2 x2 | B3 x | x2[K:bass] x2 | x4 |] %44
V:5
 x4 | x4 | x4 | x4 | x4 | x4 | x4 | x4 | x4 | x4 | x4 | B,,3 x | (B,,2 A,,2 | G,,2 F,,2) | %14
 (=A,,2 G,,2 | F,,2 E,,2) | x4 | x4 | x4 | x4 | x4 | x4 | x4 | x4 | x4 | x4 | x4 | x4 | x4 | x4 | %30
 x4 | B,,3 x | (B,,2 =A,,2 | G,,2 F,,2) | (=A,,2 =G,,2 | F,,2 E,,2) | x4 | x4 | x4 | x4 | x4 | x4 | %42
 x4 | x4 |] %44

